X:1
T:Valse ? Bouffard
C:Patrick Bouffard
R:Waltz
M:3/4
L:1/4
K:D
F2E|D2F|A3|A3|B2c|dcB|ABA|GFE|F2E|D2F|A3|A3|
B2c|dec|d3|d3:| |:FAd|FAd|GBd|GBd|Ace|Ace|
d>c d/2e/2|f2d|FAd|FAd|GBd|GBd|Ace|Ace|dc/2d/2 e/2c/2|d3:|
<end>
<start>
